!! J.S. Bach "Corrente" from Partita No. 2, solo violin, BWV 1004.
!! From 'Neue Ausgabe Saemtlicher Werke' Serie VI: Kammermusikwerke,
!! Band 1 ('Werke fuer Violine') Baerenreiter Kassel (Basel) 1958; p.31
!! NOTE: The repeats and the alternative ending at the end of bar 24
!!       and at the end of the movement have been expanded in this encoding.
!! NOTE: Triple stops occur in bars 1, 25, 49, 73, and 79, and double-stops
!!       occur in bars 2, 26, 44 and 74.
**kern
*M3/4
16a
=1
4d 4f 4a
{12c#
12b-
12a}
{12g
12f
12e}
=2
4d 4f
{12A
12g
12f}
{12e
12d
12c#}
=3
8.d
16B-
8.G
16f
8.e
16d
=4
8.c#
16A
8.c#
16e
8.a
16g
=5
12f
{12d
12e
12f
12g
12a
12b-
12cc
12dd}
=6
8.cc
16a
8.f
16c
8.A
16e-
=7
12d
{12B-
12c
12d
12en
12f
12g
12a
12b-}
=8
12a
{12f
12g
12a
12b-
12cc
12dd
12ee-
12cc}
=9
12dd
{12b-
12cc
12dd
12een
12ff
12gg
12aa
12bb-}
=10
8.e
16cc
8.gg
16bb-
8.aa
16gg
=11
{12aa
12gg
12ff}
{12ee
12ff
12gg}
{12cc
12dd
12ee}
=12
{12ff
12cc
12b-}
{12a
12b-
12cc}
{12f
12g
12a}
=13
8.d
16f#
8.a
16cc
8.b-
16a
=14
12b-
{12dd
12cc
12b-
12a
12g
12fn
12e
12d}
=15
8.c#
16e
8.a
16gg
8.ff
16ee
=16
12ff
{12a
12g
12f
12e
12d
12cn
12Bn
12A
=17
12G#}
12dd
12ee
{12ff
12ee
12dd}
{12cc
12dd
12bn}
=18
12A
12cc
12dd
{12ee
12dd
12cc}
{12bn
12cc
12a}
=19
12g#
12d
12e
{12f
12e
12d}
{12c
12d
12Bn}
=20
{12c
12e
12a}
{12cc
12ee
12aa}
{12bbn
12gg#
12aa}
=21
{12ff
12cc#
12dd}
{12b-
12g#
12a}
{12f
12c#
12d}
=22
12G#
12bbn
12aa
12gg#
{12ffn
12ee
12dd
12cc
12bn}
=23
12cc
{12ee
12dd
12cc
12bn
12a}
{12e
12a
12g#}
=24
[2A
8.A]
16a
=25
4d 4f 4a
{12c#
12b-
12a}
{12g
12f
12e}
=26
4d 4f
{12A
12g
12f}
{12e
12d
12c#}
=27
8.d
16B-
8.G
16f
8.e
16d
=28
8.c#
16A
8.c#
16e
8.a
16g
=29
12f
{12d
12e
12f
12g
12a
12b-
12cc
12dd}
=30
8.cc
16a
8.f
16c
8.A
16e-
=31
12d
{12B-
12c
12d
12en
12f
12g
12a
12b-}
=32
12a
{12f
12g
12a
12b-
12cc
12dd
12ee-
12cc}
=33
12dd
{12b-
12cc
12dd
12een
12ff
12gg
12aa
12bb-}
=34
8.e
16cc
8.gg
16bb-
8.aa
16gg
=35
{12aa
12gg
12ff}
{12ee
12ff
12gg}
{12cc
12dd
12ee}
=36
{12ff
12cc
12b-}
{12a
12b-
12cc}
{12f
12g
12a}
=37
8.d
16f#
8.a
16cc
8.b-
16a
=38
12b-
{12dd
12cc
12b-
12a
12g
12fn
12e
12d}
=39
8.c#
16e
8.a
16gg
8.ff
16ee
=40
12ff
{12a
12g
12f
12e
12d
12cn
12Bn
12A
=41
12G#}
12dd
12ee
{12ff
12ee
12dd}
{12cc
12dd
12bn}
=42
12A
12cc
12dd
{12ee
12dd
12cc}
{12bn
12cc
12a}
=43
12g#
12d
12e
{12f
12e
12d}
{12c
12d
12Bn}
=44
{12c
12e
12a}
{12cc
12ee
12aa}
{12bbn
12gg#
12aa}
=45
{12ff
12cc#
12dd}
{12b-
12g#
12a}
{12f
12c#
12d}
=46
12G#
12bbn
12aa
12gg#
{12ffn
12ee
12dd
12cc
12bn}
=47
12cc
{12ee
12dd
12cc
12bn
12a}
{12e
12a
12g#}
=48
[2A
8.A]
16ee
=49
4a 4cc# 4ee
{12g#
12ff
12ee}
{12dd
12cc#
12bn}
=50
{12cc#
12a
12e}
12A
{12b-
12a
12gn
12f
12e}
=51
8.f
16dd
8.e
16gg
8.ff
16ee
=52
8.ff
16dd
8.a
16f
8.d
16f
=53
12A
12ee-
12dd
{12cc
12b-
12a}
{12gg
12ff
12ee}
=54
8.dd
16b-
8.f
16d
8.B-
16dd
=55
12f#
12ccc
12bb-
{12aa
12gg
12ff#
12ee-
12dd
12cc}
=56
12b-
{12g
12a
12b-
12cc
12dd}
{12ee-
12dd
12ee-}
=57
12a
{12f
12g
12a
12b-
12cc}
{12dd
12cc
12dd}
=58
8.e-
16dd
8.gg
16b-
8.cc
16ee-
=59
12f#
{12a
12g
12f#
12e-
12d
12c
12B-
12A}
=60
{12B-
12d
12g}
{12b-
12dd
12gg}
{12dd
12gg
12ff#}
=61
12gg
{12dd
12cc
12b-
12a
12g
12f
12e
12d}
=62
8.e
16g
8.b-
16dd
8.cc
16b-
=63
12a
{12f
12g
12a
12bn
12cc#
12dd
12ee
12ff}
=64
12gg
{12aa
12gg
12ff
12ee
12dd
12cc#
12bn
12a}
=65
12ff
{12gg
12ff
12ee
12dd
12ccn
12b-
12a
12g}
=66
12ee
{12ff
12ee
12dd
12cc
12b-}
{12a
12cc
12ee-}
=67
12dd
{12ee-
12dd
12cc
12b-
12a}
{12g#
12dd
12bbn}
=68
4a 4cc#T
12A
{12a
12bn
12cc#
12dd
12een}
=69
{12g
12f#
12g}
12c#
{12g
12a
12b-
12a
12g}
=70
{12fn
12g
12a}
12d
{12dd
12ee
12ff
12gg
12aa}
=71
{12cc
12bn
12cc}
12f#
{12cc
12dd
12ee-
12dd
12cc}
=72
{12b-
12f#
12g}
{12ee-
12cc#
12dd}
{12bb-
12ff#
12gg}
=73
[4a 4gg 4ccc#
12ccc#]
{12ddd
12ccc#}
{12ddd
12cccn
12bb-}
=74
{12aa
12gg
12ff}
{12ee
12ff
12dd}
{12a
12dd
12cc#}
=75
8.dd
16b-
[4g#
12g#]
12a
12bn
=76
{12c#
12e
12gn}
[4b-
12b-]
12a
12g
=77
{12f
12a
12cc#}
{12dd
12ff
12aa}
12A
12d
12c#
=78
[2d
8.d]
16ee
=79
4a 4cc# 4ee
{12g#
12ff
12ee}
{12dd
12cc#
12bn}
=80
{12cc#
12a
12e}
12A
{12b-
12a
12gn
12f
12e}
=81
8.f
16dd
8.e
16gg
8.ff
16ee
=82
8.ff
16dd
8.a
16f
8.d
16f
=83
12A
12ee-
12dd
{12cc
12b-
12a}
{12gg
12ff
12ee}
=84
8.dd
16b-
8.f
16d
8.B-
16dd
=85
12f#
12ccc
12bb-
{12aa
12gg
12ff#
12ee-
12dd
12cc}
=86
12b-
{12g
12a
12b-
12cc
12dd}
{12ee-
12dd
12ee-}
=87
12a
{12f
12g
12a
12b-
12cc}
{12dd
12cc
12dd}
=88
8.e-
16dd
8.gg
16b-
8.cc
16ee-
=89
12f#
{12a
12g
12f#
12e-
12d
12c
12B-
12A}
=90
{12B-
12d
12g}
{12b-
12dd
12gg}
{12dd
12gg
12ff#}
=91
12gg
{12dd
12cc
12b-
12a
12g
12f
12e
12d}
=92
8.e
16g
8.b-
16dd
8.cc
16b-
=93
12a
{12f
12g
12a
12bn
12cc#
12dd
12ee
12ff}
=94
12gg
{12aa
12gg
12ff
12ee
12dd
12cc#
12bn
12a}
=95
12ff
{12gg
12ff
12ee
12dd
12ccn
12b-
12a
12g}
=96
12ee
{12ff
12ee
12dd
12cc
12b-}
{12a
12cc
12ee-}
=97
12dd
{12ee-
12dd
12cc
12b-
12a}
{12g#
12dd
12bbn}
=98
4a 4cc#T
12A
{12a
12bn
12cc#
12dd
12een}
=99
{12g
12f#
12g}
12c#
{12g
12a
12b-
12a
12g}
=100
{12fn
12g
12a}
12d
{12dd
12ee
12ff
12gg
12aa}
=101
{12cc
12bn
12cc}
12f#
{12cc
12dd
12ee-
12dd
12cc}
=102
{12b-
12f#
12g}
{12ee-
12cc#
12dd}
{12bb-
12ff#
12gg}
=103
[4a 4gg 4ccc#
12ccc#]
{12ddd
12ccc#}
{12ddd
12cccn
12bb-}
=104
{12aa
12gg
12ff}
{12ee
12ff
12dd}
{12a
12dd
12cc#}
=105
8.dd
16b-
[4g#
12g#]
12a
12bn
=106
{12c#
12e
12gn}
[4b-
12b-]
12a
12g
=107
{12f
12a
12cc#}
{12dd
12ff
12aa}
12A
12d
12c#
=108
[2d
8.d]
==
*-
